X:1
T:Paddy Taylor
R:Reel
D:Solas: Sunny spells and scattered showers (1997)
S:François Champs (Fev/2005)
M:2/2
L:1/8
Q:1/4=120
K:Dmix
% A
|: "D(h)" FEDF ABAF | GEcE dE c2 | FEDF ABAF | GEcE ED D2 :|
% B
  "D" d3 ^c dfed | "D/C#" Beed efge | "D/B" Add^c df "D/C#" ed | ^cAGE ED D2 |
  "D" d3 ^c dfed | "D/C#" ^cdef gefg | "D/B" afge d2 ^cA | BdAG FD D2
% C
|: "D" F3 G A2 "G" dG | GGdG GGdG | "D" F3 G Ad "D(2)" dc | ABGE ED D2 :|
